assets/icons/icon_water.svg

<svg width="48" height="48" viewBox="0 0 48 48" fill="none" xmlns="http://www.w3.org/2000/svg">
<g clip-path="url(#clip0_2188_3035)">
<path d="M26.03 5.10004C25.4 4.73004 24.7 4.54004 24 4.54004C23.3 4.54004 22.6 4.73004 21.97 5.10004C17.46 7.77004 7 15.23 7 27C7 36.39 14.61 43.97 24 43.98C33.39 43.98 41 36.39 41 27C41 15.23 30.54 7.77004 26.03 5.10004ZM24 40.98C16.28 40.98 10 34.71 10 27C10 16.78 19.44 10.09 23.5 7.69004C23.65 7.60004 23.83 7.55004 24 7.55004C24.17 7.55004 24.35 7.60004 24.5 7.69004C28.56 10.09 38 16.78 38 27C38 34.7 31.72 40.97 24 40.98Z" fill="black"/>
<path d="M24 34.48C19.86 34.48 16.5 31.12 16.5 27C16.5 26.17 15.83 25.5 15 25.5C14.17 25.5 13.5 26.17 13.5 27C13.5 32.77 18.21 37.47 24 37.48C24.83 37.48 25.5 36.81 25.5 35.98C25.5 35.15 24.83 34.48 24 34.48Z" fill="black"/>
</g>
<defs>
<clipPath id="clip0_2188_3035">
<rect width="48" height="48" fill="white"/>
</clipPath>
</defs>
</svg>

<?xml version="1.0" encoding="UTF-8"?>
<svg xmlns="http://www.w3.org/2000/svg" viewBox="0 0 48 48">
  <defs>
    <style>
      .cls-1 {
        fill: none;
        opacity: .2;
      }
    </style>
  </defs>
  <g id="guid">
    <rect class="cls-1" width="48" height="48"/>
    <rect class="cls-1" x="4" y="4" width="40" height="40"/>
  </g>
  <g id="Layer_2" data-name="Layer 2">
    <g>
      <path d="M26.03,5.1c-.63-.37-1.33-.56-2.03-.56s-1.4.19-2.03.56c-4.51,2.67-14.97,10.13-14.97,21.9,0,9.39,7.61,16.97,17,16.98,9.39,0,17-7.59,17-16.98,0-11.77-10.46-19.23-14.97-21.9ZM24,40.98c-7.72,0-14-6.27-14-13.98,0-10.22,9.44-16.91,13.5-19.31.15-.09.33-.14.5-.14s.35.05.5.14c4.06,2.4,13.5,9.09,13.5,19.31,0,7.7-6.28,13.97-14,13.98Z"/>
      <path d="M24,34.48c-4.14,0-7.5-3.36-7.5-7.48,0-.83-.67-1.5-1.5-1.5s-1.5.67-1.5,1.5c0,5.77,4.71,10.47,10.5,10.48h0c.83,0,1.5-.67,1.5-1.5s-.67-1.5-1.5-1.5Z"/>
    </g>
  </g>
</svg>
